src/assets/icons/volume-down.svg

<svg width="14" height="14" viewBox="0 0 14 14" fill="none" xmlns="http://www.w3.org/2000/svg">
<g id="volume-down">
<g clip-path="url(#clip0_156_4554)">
<path id="Vector" fill-rule="evenodd" clip-rule="evenodd" d="M10.3893 0.677425C10.3893 0.417022 10.2401 0.179669 10.0054 0.0668654C9.77067 -0.0459384 9.49209 -0.0142227 9.28875 0.14845L4.95818 3.61291H0.679677C0.305549 3.61291 0.0022583 3.9162 0.0022583 4.29033V9.70967C0.0022583 10.0838 0.305549 10.3871 0.679677 10.3871H4.95818L9.28875 13.8516C9.49209 14.0142 9.77067 14.0459 10.0054 13.9331C10.2401 13.8203 10.3893 13.583 10.3893 13.3226V0.677425ZM5.61898 4.8193L9.03451 2.08688V11.9131L5.61898 9.1807C5.49887 9.08461 5.34962 9.03226 5.1958 9.03226H1.3571V4.96774H5.1958C5.34962 4.96774 5.49887 4.91539 5.61898 4.8193ZM13.0625 4.21762C12.8377 3.91855 12.413 3.85832 12.1139 4.0831C11.8149 4.30789 11.7546 4.73255 11.9794 5.03163C12.8635 6.20784 12.865 7.78279 11.9782 8.97025C11.7543 9.27 11.8158 9.69449 12.1156 9.91835C12.4153 10.1422 12.8398 10.0807 13.0637 9.78095C14.3085 8.11421 14.31 5.87753 13.0625 4.21762Z" fill="black"/>
</g>
</g>
<defs>
<clipPath id="clip0_156_4554">
<rect width="14" height="14" fill="white"/>
</clipPath>
</defs>
</svg>

<svg xmlns="http://www.w3.org/2000/svg" fill="none" viewBox="0 0 14 14"><g clip-path="url(#a)"><path fill="#000" fill-rule="evenodd" d="M10.39.677A.677.677 0 0 0 9.288.148l-4.33 3.465H.678a.677.677 0 0 0-.677.677v5.42c0 .374.304.677.678.677h4.278l4.33 3.465a.678.678 0 0 0 1.101-.53zM5.618 4.82l3.416-2.732v9.826L5.619 9.181a.68.68 0 0 0-.423-.149H1.357V4.968h3.839a.68.68 0 0 0 .423-.149m7.444-.601a.678.678 0 0 0-1.084.814 3.25 3.25 0 0 1 0 3.938.677.677 0 1 0 1.085.811 4.61 4.61 0 0 0-.002-5.563" clip-rule="evenodd"/></g><defs><clipPath id="a"><path fill="#fff" d="M0 0h14v14H0z"/></clipPath></defs></svg>
